X:1
T:Title
%%score { ( 1 3 ) | ( 2 4 ) }
L:1/8
Q:1/4=87
M:6/8
K:G
V:1 treble nm="Grand Piano"
V:3 treble 
V:2 bass 
V:4 bass 
V:1
 BBB d2 B | B3 A2 D | D-[DA][DB] [Ec]2 [EB] | B3 A3 | [B,G][B,G][B,G] [CA]2 [DB] | %5
w: R.~Menthal * * * *|||||
 [=Fd]3 [Ec]2 [Ec] | BA[B,DG] [CDA]2 [A,DF] | [B,DG]3- [B,DG]2 [G,DG] | %8
w: |||
 [G,EG]2 [G,DF] [G,CE]2 [G,DF] | [G,CE]3 [G,B,D]2 [G,D] | [G,CE]2 [A,DF] [G,DG]2 [CEA] | %11
w: |||
 D3- [DF]3 | [G,D]<[G,D][G,B,D] [G,CE]2 [A,DF] | [G,DG]3 [G,B,G]2 [Ec] | Bd[B,DG] .[DB]2 [CFA] | %15
w: ||||
[M:7/4] [G,B,G]6 z2 z2 z4 |[M:3/4] [CEG]6 | [B,DG]6 |] %18
w: |||
V:2
 [G,D][G,D][G,D] [G,B,D]2 [G,D] | [D,G,D]3 [D,F,D]2 [C,F,] | [B,,G,][A,,F,][G,,G,] [C,G,]2 [C,G,] | %3
 [D,D]6 | [G,,G,][G,,G,][G,,G,] [G,,G,]2 [G,,G,] | [B,,G,]3 [C,G,]2 [C,G,] | .[D,D]3 z3 | %7
 G,,3- G,,2 B,, | C,2 C, C,2 C, | G,,3 G,,2 B,, | C,2 C, B,,2 C, | z3 A,3 | B,,<B,,G,, C,2 C, | %13
 B,,3 E,2 [C,G,] | [D,D]-[D,B,D]D, z GD, |[M:7/4] G,,6 z2 z2 z4 |[M:3/4] C,6 | G,,6 |] %18
V:3
 x6 | x6 | .G3 z3 | x6 | x6 | x6 | x6 | x6 | x6 | x6 | x6 | [B,G]3 z3 | x6 | x6 | x6 |[M:7/4] x14 | %16
[M:3/4] x6 | x6 |] %18
V:4
 x6 | x6 | x6 | G,3 F,3 | x6 | x6 | G,CD, D,2 D, | x6 | x6 | x6 | x6 | D,6 | x6 | x6 | .G,3 .D,3 | %15
[M:7/4] x14 |[M:3/4] x6 | x6 |] %18

